X:1
T:Title
%%score { ( 1 2 5 ) | ( 3 4 ) }
L:1/8
Q:1/4=100
M:6/8
K:Ab
V:1 bass nm="Grand Piano"
V:2 bass 
V:5 bass 
V:3 bass 
V:4 bass 
V:1
 [E,CE]3 [F,=D][K:treble]E[_CF] | [CE]3 [CA]3 | AGA BA[A,DF] | C3- [CA]3 | B3 Bcd | c6 | .A3 z3 | %7
w: S.~M.~Bixby * * *|||||||
 E3 z3 | .[A,CE]3 _C-[CE][K:treble][CF] | z3 [CA]3 | AGA BA[A,DF] | [CE]3 z3 | F3 FGA | z3 .F3 | %14
w: |||||||
 [Ec][DFB][CFA] [CE]2 [B,DEG] | [CEA]6 |] %16
w: ||
V:2
 z3 ._C3[K:treble] | x6 | x6 | [A,E]3 z3 | x6 | z2 E z2 B | z F[CEA] .[B,=DA]2 [Dc] | [E,G,B]6 | %8
 z3 .[F,=D]3[K:treble] | [CE]3 z2 =E, | x6 | A,3- [A,E]3 | x6 | E3 d2- [G,Ed] | x6 | x6 |] %16
V:3
 A,,3 z E,[A,,=D,] | [A,,E,]3 [A,,E,]3 | [D,F,D]2 [D,F,D] [D,D]-[D,F,D]D, | z3 E,3 | %4
 [E,G,E]3 [E,E]-[E,A,E][E,B,E] | [A,E]2 [G,B,] [F,A,]2 [=E,G,D] | %6
 .[F,C]2 F, z[K:treble] B[K:bass][B,,A,] | z3 D3 | z2 E, z E,[A,,=D,] | [A,,E,]3 .[A,,E,]3 | %10
 [D,F,D]2 [D,F,D] [D,D]-[D,F,D]D, | A,,3 C,3 | z3 .A,3 | [C,A,]3 .[B,,F,]3 | [C,A,]D,=D, E,2 E, | %15
 A,,6 |] %16
V:4
 z3 .A,,3 | x6 | z3 .=E,3 | A,,6 | z3 .G,3 | x6 | z3 .B,,3[K:treble][K:bass] | E,,6 | A,,3 .A,,3 | %9
 x6 | z3 .=E,3 | x6 | [D,A,D]3 [D,D]-[D,G,D][D,F,D] | x6 | x6 | x6 |] %16
V:5
 x4[K:treble] x2 | x6 | x6 | x6 | x6 | z3 F3 | x6 | x6 | x5[K:treble] x | x6 | x6 | x6 | x6 | x6 | %14
 x6 | x6 |] %16

